X: 1684
T: the Sunrise   #1
R: hornpipe, reel
%S: s:3 b:13(5+4+4)
B: O'Neill's 1850 #1684
Z: Compacted via repeats and multiple endings [JC]
O: F.O'Neill
M: 2/4
L: 1/16
K: G
(3(DEF) \
|: G>FG>B A>GE>F | G>AG>E  D2z2 | (d4 e)>dB>G |1,3 B>AA>B A2D2 :|2,4 A>cB>A G2 :|
|: E2 \
| e2E>F  G>FE2  | ^d>ef>d e2z2 | e2E>F G>FE2 | ^d>ef>d e2z2 |
| e^de>f g>fe>g | f>ed>f e2(3(def) | g>fg>e d>BG>B | A>cB>A G2 :|
